X:40
R:Kadrilj
K:G
M:2/4
L:1/16
gf | .g2 d2 (de)dc | B2G2 G2g2 | e2eg f2fg | (ag)fe d2gf |
     .g2 d2 (de)dc | B2G2 G2g2 | e2eg f2fa | .g2.d2 .g4  |
(:musicend:)
(:music:)
